Newaita-dark/apps/22/gnome-power-statistics.svg

<svg height="22pt" viewBox="0 0 22 22" width="22pt" xmlns="http://www.w3.org/2000/svg" xmlns:xlink="http://www.w3.org/1999/xlink"><linearGradient id="a"><stop offset="0" stop-opacity=".313725"/><stop offset=".222222" stop-opacity=".27451"/><stop offset="1" stop-opacity="0"/></linearGradient><radialGradient id="b" cx="450.90894" cy="189.57936" gradientTransform="matrix(.00000012 -.0537161 -.0966889 -.00000007 34.93023 43.721793)" gradientUnits="userSpaceOnUse" r="21.166656" xlink:href="#a"/><radialGradient id="c" cx="450.90894" cy="189.57936" gradientTransform="matrix(-.00000012 .0537161 .0966889 .00000007 -9.461652 -5.175141)" gradientUnits="userSpaceOnUse" r="21.166656" xlink:href="#a"/><radialGradient id="d" cx="450.90894" cy="189.57936" gradientTransform="matrix(-.00000012 -.0537161 .0966889 -.00000007 -9.461652 43.721793)" gradientUnits="userSpaceOnUse" r="21.166656" xlink:href="#a"/><radialGradient id="e" cx="450.90894" cy="189.57936" gradientTransform="matrix(.00000012 .0537161 -.0966889 .00000007 34.930228 -5.175141)" gradientUnits="userSpaceOnUse" r="21.166656" xlink:href="#a"/><linearGradient id="f" gradientTransform="matrix(.00918504 0 0 .0429729 7.887758 9.239166)" gradientUnits="userSpaceOnUse" x1="255.32306" x2="255.32304" y1="233.5" y2="254.66666"><stop offset="0" stop-opacity=".27451"/><stop offset="1" stop-opacity="0"/></linearGradient><linearGradient id="g" gradientUnits="userSpaceOnUse" x1="254" x2="254" y1="-168.66667" y2="233.5"><stop offset="0" stop-color="#616161"/><stop offset="1" stop-color="#424242"/></linearGradient><linearGradient id="h" gradientUnits="userSpaceOnUse" x1="10.9151166" x2="10.9151166" y1="1.99106705676" y2="19.27333515"><stop offset="0" stop-color="#90a4ae"/><stop offset="1" stop-color="#78909c"/></linearGradient><linearGradient id="i"><stop offset="0" stop-color="#ffa726"/><stop offset="1" stop-color="#ffb74d"/></linearGradient><linearGradient id="j" gradientUnits="userSpaceOnUse" x1="8.64113383176" x2="8.64113383176" xlink:href="#i" y1="19.27333515" y2="1.99106748649"/><linearGradient id="k" gradientUnits="userSpaceOnUse" x1="15.0082869" x2="15.0082869" xlink:href="#i" y1="19.27333815" y2="12.90618691459"/><linearGradient id="l" gradientUnits="userSpaceOnUse" x1="16.82747328649" x2="16.82747328649" y1="19.27333815" y2="11.0870007"><stop offset="0" stop-color="#66bb6a"/><stop offset="1" stop-color="#81c784"/></linearGradient><linearGradient id="m" gradientUnits="userSpaceOnUse" x1="13.18910051351" x2="13.18910051351" y1="19.27333815" y2="14.72537261351"><stop offset="0" stop-color="#ef5350"/><stop offset="1" stop-color="#e57373"/></linearGradient><path d="m16.828125 19.273438h1.820313v-.910157h-1.820313zm0 0" fill="url(#b)"/><path d="m8.640625 19.273438h-1.820313v.910156h1.820313zm0 0" fill="url(#c)"/><path d="m8.640625 19.273438h-1.820313v-.910157h1.820313zm0 0" fill="url(#d)"/><path d="m16.828125 19.273438h1.820313v.910156h-1.820313zm0 0" fill="url(#e)"/><path d="m8.640625 19.046875h8.1875v1.136719h-8.1875zm0 0" fill="url(#f)"/><path d="m253.975747-168.640791c111.080301 0 201.071707 89.991407 201.071707 201.071708s-89.991406 201.071708-201.071707 201.071708c-110.989402 0-201.071708-89.991407-201.071708-201.071708s90.082306-201.071708 201.071708-201.071708zm0 0" fill="url(#g)" stroke="#333" stroke-linecap="round" stroke-width="3" transform="matrix(.0429729 0 0 .0429729 0 9.239163)"/><path d="m2.273438 10.703125c.039062 4.753906 3.878906 8.570313 8.640624 8.570313 4.765626 0 8.601563-3.816407 8.640626-8.570313-6.875-5.125-9.621094 5.027344-17.28125 0zm0 0" fill="url(#h)"/><path d="m10.914062 19.214844c-4.785156 0-8.640624-3.851563-8.640624-8.640625 0-.027344 0-.054688 0-.082031.046874 4.746093 3.882812 8.554687 8.640624 8.554687 4.761719 0 8.597657-3.808594 8.640626-8.554687v.082031c0 4.789062-3.851563 8.640625-8.640626 8.640625zm0 0" fill-opacity=".196078"/><path d="m10.914062 2.046875c-4.785156 0-8.640624 3.855469-8.640624 8.640625v.085938c.046874-4.746094 3.882812-8.554688 8.640624-8.554688 4.761719 0 8.597657 3.808594 8.640626 8.554688 0-.027344 0-.054688 0-.085938 0-4.785156-3.851563-8.640625-8.640626-8.640625zm0 0" fill="#fff" fill-opacity=".392157"/><path d="m10.914062 1.925781c-4.820312 0-8.703124 3.882813-8.703124 8.707031 0 4.820313 3.882812 8.703126 8.703124 8.703126 4.824219 0 8.707032-3.882813 8.707032-8.703126 0-4.824218-3.882813-8.707031-8.707032-8.707031zm0 .128907c4.753907 0 8.578126 3.824218 8.578126 8.578124 0 4.75-3.824219 8.574219-8.578126 8.574219-4.75 0-8.574218-3.824219-8.574218-8.574219 0-4.753906 3.824218-8.578124 8.574218-8.578124zm0 0" fill="#212121"/><path d="m7.730469 16.089844 6.824219-5.457032-2.730469-.910156 2.273437-4.546875-6.820312 5.457031 2.726562.910157zm0 0" fill="url(#j)" fill-rule="evenodd"/><path d="m14.097656 5.175781-6.820312 5.457031.402344.132813 6.039062-4.832031zm-2.078125 4.613281-.195312.386719 2.328125.777344.402344-.320313zm-2.207031 2.140626-2.082031 4.160156.378906-.304688 1.894531-3.789062zm0 0" fill="#fff" fill-opacity=".392157" fill-rule="evenodd"/><path d="m14.097656 5.628906-.566406.457032-1.707031 3.410156.292969.097656zm-6.21875 4.976563-.601562.480469 2.4375.8125.289062-.585938zm6.074219.28125-5.652344 4.519531-.570312 1.136719 6.824219-5.457031zm0 0" fill-opacity=".235294" fill-rule="evenodd"/><path d="m179.891912 159.41879 158.803017-126.987873-63.539387-21.179796 52.904039-105.808077-158.712117 126.987873 63.448487 21.179796zm0 0" fill="none" stroke="#212121" stroke-width="3" transform="matrix(.0429729 0 0 .0429729 0 9.239163)"/><path d="m14.554688 12.90625h.910156c.25 0 .453125.203125.453125.453125v5.460937c0 .25-.203125.453126-.453125.453126h-.910156c-.253907 0-.457032-.203126-.457032-.453126v-5.460937c0-.25.203125-.453125.457032-.453125zm0 0" fill="url(#k)"/><path d="m16.371094 11.085938h.910156c.253906 0 .457031.203124.457031.457031v7.277343c0 .25-.203125.453126-.457031.453126h-.910156c-.25 0-.453125-.203126-.453125-.453126v-7.277343c0-.253907.203125-.457031.453125-.457031zm0 0" fill="url(#l)"/><path d="m12.734375 14.726562h.910156c.25 0 .453125.203126.453125.453126v3.640624c0 .25-.203125.453126-.453125.453126h-.910156c-.25 0-.453125-.203126-.453125-.453126v-3.640624c0-.25.203125-.453126.453125-.453126zm0 0" fill="url(#m)"/><path d="m14.554688 12.90625c-.253907 0-.457032.203125-.457032.453125v.230469c0-.253906.203125-.457032.457032-.457032h.910156c.25 0 .453125.203126.453125.457032v-.230469c0-.25-.203125-.453125-.453125-.453125zm0 0" fill="#fff" fill-opacity=".392157"/><path d="m16.371094 11.085938c-.25 0-.453125.203124-.453125.457031v.226562c0-.253906.203125-.457031.453125-.457031h.910156c.253906 0 .457031.203125.457031.457031v-.226562c0-.253907-.203125-.457031-.457031-.457031zm0 0" fill="#fff" fill-opacity=".392157"/><path d="m12.734375 14.726562c-.253906 0-.453125.203126-.453125.453126v.226562c0-.25.199219-.453125.453125-.453125h.910156c.25 0 .453125.203125.453125.453125v-.226562c0-.25-.203125-.453126-.453125-.453126zm0 0" fill="#fff" fill-opacity=".392157"/><path d="m15.464844 19.273438c.25 0 .453125-.203126.453125-.453126v-.230468c0 .253906-.203125.457031-.453125.457031h-.910156c-.253907 0-.457032-.203125-.457032-.457031v.230468c0 .25.203125.453126.457032.453126zm0 0" fill-opacity=".235294"/><path d="m13.644531 19.273438c.25 0 .453125-.203126.453125-.453126v-.230468c0 .253906-.203125.457031-.453125.457031h-.910156c-.253906 0-.453125-.203125-.453125-.457031v.230468c0 .25.199219.453126.453125.453126zm0 0" fill-opacity=".235294"/><path d="m17.28125 19.273438c.253906 0 .457031-.203126.457031-.453126v-.230468c0 .253906-.203125.457031-.457031.457031h-.910156c-.25 0-.453125-.203125-.453125-.457031v.230468c0 .25.203125.453126.453125.453126zm0 0" fill-opacity=".235294"/><g stroke-linecap="round" stroke-width="3"><path d="m338.694929 85.334956h21.179796c5.817626 0 10.544447 4.726821 10.544447 10.544447v127.078774c0 5.817626-4.726821 10.544448-10.544447 10.544448h-21.179796c-5.908527 0-10.635348-4.726822-10.635348-10.544448v-127.078774c0-5.817626 4.726821-10.544447 10.635348-10.544447zm0 0" fill="none" stroke="#212121" stroke-linejoin="round" transform="matrix(.0429729 0 0 .0429729 0 9.239163)"/><path d="m380.96362 42.975365h21.179795c5.908527 0 10.635348 4.726821 10.635348 10.635348v169.347464c0 5.817626-4.726821 10.544448-10.635348 10.544448h-21.179795c-5.817626 0-10.544448-4.726822-10.544448-10.544448v-169.347464c0-5.908527 4.726822-10.635348 10.544448-10.635348zm0 0" fill="none" stroke="#212121" stroke-linejoin="round" transform="matrix(.0429729 0 0 .0429729 0 9.239163)"/><path d="m296.335338 127.694547h21.179795c5.817627 0 10.544448 4.726821 10.544448 10.544448v84.719182c0 5.817626-4.726821 10.544448-10.544448 10.544448h-21.179795c-5.817627 0-10.544448-4.726822-10.544448-10.544448v-84.719182c0-5.817627 4.726821-10.544448 10.544448-10.544448zm0 0" fill="none" stroke="#212121" stroke-linejoin="round" transform="matrix(.0429729 0 0 .0429729 0 9.239163)"/></g></svg>

<?xml version="1.0" encoding="UTF-8"?>
<svg xmlns="http://www.w3.org/2000/svg" xmlns:xlink="http://www.w3.org/1999/xlink" width="22pt" height="22pt" viewBox="0 0 22 22" version="1.1">
<defs>
<radialGradient id="radial0" gradientUnits="userSpaceOnUse" cx="450.90894" cy="189.57936" fx="450.90894" fy="189.57936" r="21.166656" gradientTransform="matrix(0.000000119742,-0.0537161,-0.0966889,-0.0000000698078,34.93023,43.721793)">
<stop offset="0" style="stop-color:rgb(0%,0%,0%);stop-opacity:0.313725;"/>
<stop offset="0.222222" style="stop-color:rgb(0%,0%,0%);stop-opacity:0.27451;"/>
<stop offset="1" style="stop-color:rgb(0%,0%,0%);stop-opacity:0;"/>
</radialGradient>
<radialGradient id="radial1" gradientUnits="userSpaceOnUse" cx="450.90894" cy="189.57936" fx="450.90894" fy="189.57936" r="21.166656" gradientTransform="matrix(-0.000000119742,0.0537161,0.0966889,0.0000000698078,-9.461652,-5.175141)">
<stop offset="0" style="stop-color:rgb(0%,0%,0%);stop-opacity:0.313725;"/>
<stop offset="0.222222" style="stop-color:rgb(0%,0%,0%);stop-opacity:0.27451;"/>
<stop offset="1" style="stop-color:rgb(0%,0%,0%);stop-opacity:0;"/>
</radialGradient>
<radialGradient id="radial2" gradientUnits="userSpaceOnUse" cx="450.90894" cy="189.57936" fx="450.90894" fy="189.57936" r="21.166656" gradientTransform="matrix(-0.000000119742,-0.0537161,0.0966889,-0.0000000698078,-9.461652,43.721793)">
<stop offset="0" style="stop-color:rgb(0%,0%,0%);stop-opacity:0.313725;"/>
<stop offset="0.222222" style="stop-color:rgb(0%,0%,0%);stop-opacity:0.27451;"/>
<stop offset="1" style="stop-color:rgb(0%,0%,0%);stop-opacity:0;"/>
</radialGradient>
<radialGradient id="radial3" gradientUnits="userSpaceOnUse" cx="450.90894" cy="189.57936" fx="450.90894" fy="189.57936" r="21.166656" gradientTransform="matrix(0.000000119742,0.0537161,-0.0966889,0.0000000698078,34.930228,-5.175141)">
<stop offset="0" style="stop-color:rgb(0%,0%,0%);stop-opacity:0.313725;"/>
<stop offset="0.222222" style="stop-color:rgb(0%,0%,0%);stop-opacity:0.27451;"/>
<stop offset="1" style="stop-color:rgb(0%,0%,0%);stop-opacity:0;"/>
</radialGradient>
<linearGradient id="linear0" gradientUnits="userSpaceOnUse" x1="255.32306" y1="233.5" x2="255.32304" y2="254.66666" gradientTransform="matrix(0.00918504,0,0,0.0429729,7.887758,9.239166)">
<stop offset="0" style="stop-color:rgb(0%,0%,0%);stop-opacity:0.27451;"/>
<stop offset="1" style="stop-color:rgb(0%,0%,0%);stop-opacity:0;"/>
</linearGradient>
<linearGradient id="linear1" gradientUnits="userSpaceOnUse" x1="254" y1="-168.66667" x2="254" y2="233.5" >
<stop offset="0" style="stop-color:rgb(38.039216%,38.039216%,38.039216%);stop-opacity:1;"/>
<stop offset="1" style="stop-color:rgb(25.882353%,25.882353%,25.882353%);stop-opacity:1;"/>
</linearGradient>
<linearGradient id="linear2" gradientUnits="userSpaceOnUse" x1="254" y1="-168.66667" x2="254" y2="233.5" gradientTransform="matrix(0.0429729,0,0,0.0429729,0,9.239163)">
<stop offset="0" style="stop-color:rgb(56.470588%,64.313725%,68.235294%);stop-opacity:1;"/>
<stop offset="1" style="stop-color:rgb(47.058824%,56.470588%,61.176471%);stop-opacity:1;"/>
</linearGradient>
<linearGradient id="linear3" gradientUnits="userSpaceOnUse" x1="201.08333" y1="233.5" x2="201.08333" y2="-168.66666" gradientTransform="matrix(0.0429729,0,0,0.0429729,0,9.239163)">
<stop offset="0" style="stop-color:rgb(100%,65.490196%,14.901961%);stop-opacity:1;"/>
<stop offset="1" style="stop-color:rgb(100%,71.764706%,30.196078%);stop-opacity:1;"/>
</linearGradient>
<linearGradient id="linear4" gradientUnits="userSpaceOnUse" x1="381" y1="233.5" x2="381" y2="85.333336" gradientTransform="matrix(0.0429729,0,0,0.0429729,-1.364388,9.239166)">
<stop offset="0" style="stop-color:rgb(100%,65.490196%,14.901961%);stop-opacity:1;"/>
<stop offset="1" style="stop-color:rgb(100%,71.764706%,30.196078%);stop-opacity:1;"/>
</linearGradient>
<linearGradient id="linear5" gradientUnits="userSpaceOnUse" x1="423.33334" y1="233.5" x2="423.33334" y2="43" gradientTransform="matrix(0.0429729,0,0,0.0429729,-1.364388,9.239166)">
<stop offset="0" style="stop-color:rgb(40%,73.333333%,41.568627%);stop-opacity:1;"/>
<stop offset="1" style="stop-color:rgb(50.588235%,78.039216%,51.764706%);stop-opacity:1;"/>
</linearGradient>
<linearGradient id="linear6" gradientUnits="userSpaceOnUse" x1="338.66666" y1="233.5" x2="338.66666" y2="127.66666" gradientTransform="matrix(0.0429729,0,0,0.0429729,-1.364388,9.239166)">
<stop offset="0" style="stop-color:rgb(93.72549%,32.54902%,31.372549%);stop-opacity:1;"/>
<stop offset="1" style="stop-color:rgb(89.803922%,45.098039%,45.098039%);stop-opacity:1;"/>
</linearGradient>
</defs>
<g id="surface1">
<path style=" stroke:none;fill-rule:nonzero;fill:url(#radial0);" d="M 16.828125 19.273438 L 18.648438 19.273438 L 18.648438 18.363281 L 16.828125 18.363281 Z M 16.828125 19.273438 "/>
<path style=" stroke:none;fill-rule:nonzero;fill:url(#radial1);" d="M 8.640625 19.273438 L 6.820312 19.273438 L 6.820312 20.183594 L 8.640625 20.183594 Z M 8.640625 19.273438 "/>
<path style=" stroke:none;fill-rule:nonzero;fill:url(#radial2);" d="M 8.640625 19.273438 L 6.820312 19.273438 L 6.820312 18.363281 L 8.640625 18.363281 Z M 8.640625 19.273438 "/>
<path style=" stroke:none;fill-rule:nonzero;fill:url(#radial3);" d="M 16.828125 19.273438 L 18.648438 19.273438 L 18.648438 20.183594 L 16.828125 20.183594 Z M 16.828125 19.273438 "/>
<path style=" stroke:none;fill-rule:nonzero;fill:url(#linear0);" d="M 8.640625 19.046875 L 16.828125 19.046875 L 16.828125 20.183594 L 8.640625 20.183594 Z M 8.640625 19.046875 "/>
<path style="fill-rule:nonzero;fill:url(#linear1);stroke-width:3;stroke-linecap:round;stroke-linejoin:miter;stroke:rgb(20%,20%,20%);stroke-opacity:1;stroke-miterlimit:4;" d="M 253.975747 -168.640791 C 365.056048 -168.640791 455.047454 -78.649384 455.047454 32.430917 C 455.047454 143.511218 365.056048 233.502625 253.975747 233.502625 C 142.986345 233.502625 52.904039 143.511218 52.904039 32.430917 C 52.904039 -78.649384 142.986345 -168.640791 253.975747 -168.640791 Z M 253.975747 -168.640791 " transform="matrix(0.0429729,0,0,0.0429729,0,9.239163)"/>
<path style=" stroke:none;fill-rule:nonzero;fill:url(#linear2);" d="M 2.273438 10.703125 C 2.3125 15.457031 6.152344 19.273438 10.914062 19.273438 C 15.679688 19.273438 19.515625 15.457031 19.554688 10.703125 C 12.679688 5.578125 9.933594 15.730469 2.273438 10.703125 Z M 2.273438 10.703125 "/>
<path style=" stroke:none;fill-rule:nonzero;fill:rgb(0%,0%,0%);fill-opacity:0.196078;" d="M 10.914062 19.214844 C 6.128906 19.214844 2.273438 15.363281 2.273438 10.574219 C 2.273438 10.546875 2.273438 10.519531 2.273438 10.492188 C 2.320312 15.238281 6.15625 19.046875 10.914062 19.046875 C 15.675781 19.046875 19.511719 15.238281 19.554688 10.492188 C 19.554688 10.519531 19.554688 10.546875 19.554688 10.574219 C 19.554688 15.363281 15.703125 19.214844 10.914062 19.214844 Z M 10.914062 19.214844 "/>
<path style=" stroke:none;fill-rule:nonzero;fill:rgb(100%,100%,100%);fill-opacity:0.392157;" d="M 10.914062 2.046875 C 6.128906 2.046875 2.273438 5.902344 2.273438 10.6875 C 2.273438 10.71875 2.273438 10.746094 2.273438 10.773438 C 2.320312 6.027344 6.15625 2.21875 10.914062 2.21875 C 15.675781 2.21875 19.511719 6.027344 19.554688 10.773438 C 19.554688 10.746094 19.554688 10.71875 19.554688 10.6875 C 19.554688 5.902344 15.703125 2.046875 10.914062 2.046875 Z M 10.914062 2.046875 "/>
<path style=" stroke:none;fill-rule:nonzero;fill:rgb(12.941176%,12.941176%,12.941176%);fill-opacity:1;" d="M 10.914062 1.925781 C 6.09375 1.925781 2.210938 5.808594 2.210938 10.632812 C 2.210938 15.453125 6.09375 19.335938 10.914062 19.335938 C 15.738281 19.335938 19.621094 15.453125 19.621094 10.632812 C 19.621094 5.808594 15.738281 1.925781 10.914062 1.925781 Z M 10.914062 2.054688 C 15.667969 2.054688 19.492188 5.878906 19.492188 10.632812 C 19.492188 15.382812 15.667969 19.207031 10.914062 19.207031 C 6.164062 19.207031 2.339844 15.382812 2.339844 10.632812 C 2.339844 5.878906 6.164062 2.054688 10.914062 2.054688 Z M 10.914062 2.054688 "/>
<path style=" stroke:none;fill-rule:evenodd;fill:url(#linear3);" d="M 7.730469 16.089844 L 14.554688 10.632812 L 11.824219 9.722656 L 14.097656 5.175781 L 7.277344 10.632812 L 10.003906 11.542969 Z M 7.730469 16.089844 "/>
<path style=" stroke:none;fill-rule:evenodd;fill:rgb(100%,100%,100%);fill-opacity:0.392157;" d="M 14.097656 5.175781 L 7.277344 10.632812 L 7.679688 10.765625 L 13.71875 5.933594 Z M 12.019531 9.789062 L 11.824219 10.175781 L 14.152344 10.953125 L 14.554688 10.632812 Z M 9.8125 11.929688 L 7.730469 16.089844 L 8.109375 15.785156 L 10.003906 11.996094 Z M 9.8125 11.929688 "/>
<path style=" stroke:none;fill-rule:evenodd;fill:rgb(0%,0%,0%);fill-opacity:0.235294;" d="M 14.097656 5.628906 L 13.53125 6.085938 L 11.824219 9.496094 L 12.117188 9.59375 Z M 7.878906 10.605469 L 7.277344 11.085938 L 9.714844 11.898438 L 10.003906 11.3125 Z M 13.953125 10.886719 L 8.300781 15.40625 L 7.730469 16.542969 L 14.554688 11.085938 Z M 13.953125 10.886719 "/>
<path style="fill:none;stroke-width:3;stroke-linecap:butt;stroke-linejoin:miter;stroke:rgb(12.941176%,12.941176%,12.941176%);stroke-opacity:1;stroke-miterlimit:4;" d="M 179.891912 159.41879 L 338.694929 32.430917 L 275.155542 11.251121 L 328.059581 -94.556956 L 169.347464 32.430917 L 232.795951 53.610713 Z M 179.891912 159.41879 " transform="matrix(0.0429729,0,0,0.0429729,0,9.239163)"/>
<path style=" stroke:none;fill-rule:nonzero;fill:url(#linear4);" d="M 14.554688 12.90625 L 15.464844 12.90625 C 15.714844 12.90625 15.917969 13.109375 15.917969 13.359375 L 15.917969 18.820312 C 15.917969 19.070312 15.714844 19.273438 15.464844 19.273438 L 14.554688 19.273438 C 14.300781 19.273438 14.097656 19.070312 14.097656 18.820312 L 14.097656 13.359375 C 14.097656 13.109375 14.300781 12.90625 14.554688 12.90625 Z M 14.554688 12.90625 "/>
<path style=" stroke:none;fill-rule:nonzero;fill:url(#linear5);" d="M 16.371094 11.085938 L 17.28125 11.085938 C 17.535156 11.085938 17.738281 11.289062 17.738281 11.542969 L 17.738281 18.820312 C 17.738281 19.070312 17.535156 19.273438 17.28125 19.273438 L 16.371094 19.273438 C 16.121094 19.273438 15.917969 19.070312 15.917969 18.820312 L 15.917969 11.542969 C 15.917969 11.289062 16.121094 11.085938 16.371094 11.085938 Z M 16.371094 11.085938 "/>
<path style=" stroke:none;fill-rule:nonzero;fill:url(#linear6);" d="M 12.734375 14.726562 L 13.644531 14.726562 C 13.894531 14.726562 14.097656 14.929688 14.097656 15.179688 L 14.097656 18.820312 C 14.097656 19.070312 13.894531 19.273438 13.644531 19.273438 L 12.734375 19.273438 C 12.484375 19.273438 12.28125 19.070312 12.28125 18.820312 L 12.28125 15.179688 C 12.28125 14.929688 12.484375 14.726562 12.734375 14.726562 Z M 12.734375 14.726562 "/>
<path style=" stroke:none;fill-rule:nonzero;fill:rgb(100%,100%,100%);fill-opacity:0.392157;" d="M 14.554688 12.90625 C 14.300781 12.90625 14.097656 13.109375 14.097656 13.359375 L 14.097656 13.589844 C 14.097656 13.335938 14.300781 13.132812 14.554688 13.132812 L 15.464844 13.132812 C 15.714844 13.132812 15.917969 13.335938 15.917969 13.589844 L 15.917969 13.359375 C 15.917969 13.109375 15.714844 12.90625 15.464844 12.90625 Z M 14.554688 12.90625 "/>
<path style=" stroke:none;fill-rule:nonzero;fill:rgb(100%,100%,100%);fill-opacity:0.392157;" d="M 16.371094 11.085938 C 16.121094 11.085938 15.917969 11.289062 15.917969 11.542969 L 15.917969 11.769531 C 15.917969 11.515625 16.121094 11.3125 16.371094 11.3125 L 17.28125 11.3125 C 17.535156 11.3125 17.738281 11.515625 17.738281 11.769531 L 17.738281 11.542969 C 17.738281 11.289062 17.535156 11.085938 17.28125 11.085938 Z M 16.371094 11.085938 "/>
<path style=" stroke:none;fill-rule:nonzero;fill:rgb(100%,100%,100%);fill-opacity:0.392157;" d="M 12.734375 14.726562 C 12.480469 14.726562 12.28125 14.929688 12.28125 15.179688 L 12.28125 15.40625 C 12.28125 15.15625 12.480469 14.953125 12.734375 14.953125 L 13.644531 14.953125 C 13.894531 14.953125 14.097656 15.15625 14.097656 15.40625 L 14.097656 15.179688 C 14.097656 14.929688 13.894531 14.726562 13.644531 14.726562 Z M 12.734375 14.726562 "/>
<path style=" stroke:none;fill-rule:nonzero;fill:rgb(0%,0%,0%);fill-opacity:0.235294;" d="M 15.464844 19.273438 C 15.714844 19.273438 15.917969 19.070312 15.917969 18.820312 L 15.917969 18.589844 C 15.917969 18.84375 15.714844 19.046875 15.464844 19.046875 L 14.554688 19.046875 C 14.300781 19.046875 14.097656 18.84375 14.097656 18.589844 L 14.097656 18.820312 C 14.097656 19.070312 14.300781 19.273438 14.554688 19.273438 Z M 15.464844 19.273438 "/>
<path style=" stroke:none;fill-rule:nonzero;fill:rgb(0%,0%,0%);fill-opacity:0.235294;" d="M 13.644531 19.273438 C 13.894531 19.273438 14.097656 19.070312 14.097656 18.820312 L 14.097656 18.589844 C 14.097656 18.84375 13.894531 19.046875 13.644531 19.046875 L 12.734375 19.046875 C 12.480469 19.046875 12.28125 18.84375 12.28125 18.589844 L 12.28125 18.820312 C 12.28125 19.070312 12.480469 19.273438 12.734375 19.273438 Z M 13.644531 19.273438 "/>
<path style=" stroke:none;fill-rule:nonzero;fill:rgb(0%,0%,0%);fill-opacity:0.235294;" d="M 17.28125 19.273438 C 17.535156 19.273438 17.738281 19.070312 17.738281 18.820312 L 17.738281 18.589844 C 17.738281 18.84375 17.535156 19.046875 17.28125 19.046875 L 16.371094 19.046875 C 16.121094 19.046875 15.917969 18.84375 15.917969 18.589844 L 15.917969 18.820312 C 15.917969 19.070312 16.121094 19.273438 16.371094 19.273438 Z M 17.28125 19.273438 "/>
<path style="fill:none;stroke-width:3;stroke-linecap:round;stroke-linejoin:round;stroke:rgb(12.941176%,12.941176%,12.941176%);stroke-opacity:1;stroke-miterlimit:4;" d="M 338.694929 85.334956 L 359.874725 85.334956 C 365.692351 85.334956 370.419172 90.061777 370.419172 95.879403 L 370.419172 222.958177 C 370.419172 228.775803 365.692351 233.502625 359.874725 233.502625 L 338.694929 233.502625 C 332.786402 233.502625 328.059581 228.775803 328.059581 222.958177 L 328.059581 95.879403 C 328.059581 90.061777 332.786402 85.334956 338.694929 85.334956 Z M 338.694929 85.334956 " transform="matrix(0.0429729,0,0,0.0429729,0,9.239163)"/>
<path style="fill:none;stroke-width:3;stroke-linecap:round;stroke-linejoin:round;stroke:rgb(12.941176%,12.941176%,12.941176%);stroke-opacity:1;stroke-miterlimit:4;" d="M 380.96362 42.975365 L 402.143415 42.975365 C 408.051942 42.975365 412.778763 47.702186 412.778763 53.610713 L 412.778763 222.958177 C 412.778763 228.775803 408.051942 233.502625 402.143415 233.502625 L 380.96362 233.502625 C 375.145994 233.502625 370.419172 228.775803 370.419172 222.958177 L 370.419172 53.610713 C 370.419172 47.702186 375.145994 42.975365 380.96362 42.975365 Z M 380.96362 42.975365 " transform="matrix(0.0429729,0,0,0.0429729,0,9.239163)"/>
<path style="fill:none;stroke-width:3;stroke-linecap:round;stroke-linejoin:round;stroke:rgb(12.941176%,12.941176%,12.941176%);stroke-opacity:1;stroke-miterlimit:4;" d="M 296.335338 127.694547 L 317.515133 127.694547 C 323.33276 127.694547 328.059581 132.421368 328.059581 138.238995 L 328.059581 222.958177 C 328.059581 228.775803 323.33276 233.502625 317.515133 233.502625 L 296.335338 233.502625 C 290.517711 233.502625 285.79089 228.775803 285.79089 222.958177 L 285.79089 138.238995 C 285.79089 132.421368 290.517711 127.694547 296.335338 127.694547 Z M 296.335338 127.694547 " transform="matrix(0.0429729,0,0,0.0429729,0,9.239163)"/>
</g>
</svg>
